X:1
T:Title
%%score 1 { 2 | 3 }
L:1/8
Q:1/4=110
M:4/4
K:G
V:1 treble nm="Grand Piano, Unnamed-000"
V:2 bass nm="Choir Pad, Beati Immaculati, CM"
V:3 bass 
V:1
 [CD]2 [B,D]2 [EG]2 [GB]2 | [FA]2 G2 [Ge]2 [Gd]2 | [Fc]2 [GB]2 [FA]2 G2 | [DB]2 [DA]6 | %4
w: By~Alexander~Robert~Reinagle,~ca.~1836 * * *||||
 [B,D]2 D2 [EG]2 [FB]2 | [^DA]2 [EG]2 [Ge]2 [Gd]2 | [^Gd]2 [Ac]2 [EA]2 E2 | [DF]2 [DG]6- | %8
w: ||||
 [DG]2 z2 z4 |] %9
w: |
V:2
 A,2 G,2 B,2 D2 | C2 B,2[K:treble] C2 D2 | D2 D2 D2 D2 | G,2 F,6 | G,2 A,2 B,2 B,2 | %5
 B,2 B,2[K:treble] C2 D2 | E2 E2 C2 C2 | DC B,6- | B,2 z2 z4 |] %9
V:3
 F,2 z2 E,2 D,2 | D,2 G,2 z2 B,2 | A,2 G,2 D,2 B,,2 | G,,2 D,6 | z2 F,2 E,2 ^D,2 | %5
 B,,2 E,2 C,2 B,,2 | E,2 A,,2 C,2 A,2 | D,2 G,6- | G,2 z2 z4 |] %9

